resources/devices/speaker_floor_1.svg

<?xml version="1.0" encoding="UTF-8" standalone="no"?>
<!-- Created with Inkscape (http://www.inkscape.org/) -->

<svg
   width="100"
   height="60"
   viewBox="0 0 100 60"
   version="1.1"
   id="svg1"
   xml:space="preserve"
   inkscape:version="1.3.2 (091e20e, 2023-11-25)"
   sodipodi:docname="speaker_floor_1.svg"
   xmlns:inkscape="http://www.inkscape.org/namespaces/inkscape"
   xmlns:sodipodi="http://sodipodi.sourceforge.net/DTD/sodipodi-0.dtd"
   xmlns="http://www.w3.org/2000/svg"
   xmlns:svg="http://www.w3.org/2000/svg"><sodipodi:namedview
     id="namedview1"
     pagecolor="#ffffff"
     bordercolor="#000000"
     borderopacity="0.25"
     inkscape:showpageshadow="2"
     inkscape:pageopacity="0.0"
     inkscape:pagecheckerboard="0"
     inkscape:deskcolor="#d1d1d1"
     inkscape:document-units="mm"
     showguides="true"
     inkscape:zoom="1.4936861"
     inkscape:cx="35.817432"
     inkscape:cy="23.766707"
     inkscape:window-width="1632"
     inkscape:window-height="904"
     inkscape:window-x="0"
     inkscape:window-y="25"
     inkscape:window-maximized="0"
     inkscape:current-layer="layer1" /><defs
     id="defs1" /><g
     inkscape:label="Слой 1"
     inkscape:groupmode="layer"
     id="layer1"
     transform="translate(-5,-46.44379)"><g
       id="g326951"
       transform="translate(5,1.221895)"><path
         style="fill:#b1b1b1;fill-opacity:1;stroke:#060606;stroke-width:0.043021;stroke-linecap:square;stroke-linejoin:round;stroke-miterlimit:4.7"
         d="M 8.0215098,82.83348 18.209225,51.02151 84.847014,55.335263 74.812262,86.899329 Z"
         id="path326951"
         sodipodi:nodetypes="ccccc" /><path
         style="fill:#000000;stroke-width:1.99824"
         d="M 8.6925083,95.912187 C 2.5396087,83.528502 4.8249542,82.506358 10.078477,66.833559 l 5.493849,-16.389769 72.669993,4.422537 c 0,0 5.216002,7.97218 6.757681,12.923992 -0.273592,7.185252 -0.991881,21.387942 -0.991881,21.387942 L 80.836394,100 Z M 78.558797,98.950101 75.770972,92.015369 C 32.348249,89.418069 7.3221475,87.658214 7.3221475,87.658214 l 2.7270095,7.18711 z M 93.319756,88.845113 c 0,0 1.061868,-20.236832 0.772885,-21.101513 -1.538574,-4.603677 -6.367669,-12.169894 -6.367669,-12.169894 0,0 -8.331013,26.650421 -8.664512,27.897106 -0.341262,1.27572 -1.882145,9.346033 2.067915,15.349244 4.148629,-3.221993 8.166499,-6.601624 12.191381,-9.974943 z M 82.964652,84.290491 c 0.67932,-4.624358 1.601065,-10.18094 5.176306,-13.511755 l 0.72944,1.903708 c 1.035336,2.702048 1.106527,4.694937 1.070396,5.928475 -0.0259,0.865478 -2.533471,9.524177 -3.350887,10.895534 -3.139983,-0.944391 -3.543033,-2.01775 -3.625255,-5.215962 z m 5.16841,-3.163101 c -0.274013,0.169251 -0.515913,-0.241449 -0.537559,-0.912879 -0.05239,-1.625854 -2.668468,5.996514 -2.423049,6.69508 0.276006,0.785672 2.08687,-5.870265 2.320282,-5.170001 0.232312,0.69699 -2.207471,6.97184 -1.525333,6.227694 0.601165,-0.655804 2.826099,-7.248078 2.165659,-6.839894 z m 0.339389,-5.920782 c 0.30883,-1.019385 -0.92003,-1.764551 -1.069263,-0.276158 -0.09654,0.962735 0.772949,1.254239 1.069263,0.276158 z M 8.0233958,91.195629 c -0.7758827,-1.938117 -1.4963221,-3.43822 -1.6009762,-3.333572 -0.1046482,0.104706 0.4404772,1.780077 1.2114063,3.72315 0.770929,1.943074 1.4913685,3.443177 1.6009782,3.333573 C 9.344408,94.809277 8.7992806,93.133747 8.0233958,91.195629 Z M 74.395242,88.594233 C 74.323863,88.289721 9.4487923,84.254664 8.6422346,84.437224 7.8356766,84.619863 8.0672653,85.758643 8.329487,85.90977 c 0.2622217,0.151067 65.404516,4.17915 65.656892,4.151715 0.225314,-0.02458 0.644221,-0.463293 0.408863,-1.467252 z M 86.548232,56.451655 C 86.841988,55.532982 86.262643,55.725513 86.056094,55.733985 75.830408,85.954051 76.003411,86.967762 76.003411,87.1506 c 0,0.944491 0.784569,0.515848 0.986671,-0.116096 0.818867,-2.560273 6.389648,-20.78685 9.55815,-30.582909 z M 84.70901,55.84287 18.422629,51.765629 8.4449197,82.722049 74.727035,86.734207 Z M 11.527835,66.834339 c 2.826057,-8.578568 4.987435,-15.591351 4.803061,-15.583977 -0.184379,0.008 -2.439227,6.891529 -5.302395,15.200194 -5.8285241,16.91387 -4.6932849,16.193401 -4.6932849,16.193401 0,0 -1.7279008,5.197838 5.1926249,-15.809618 z m 0.06486,3.426911 C 15.058303,59.802373 17.953743,50.963214 17.39667,51.568542 16.713939,52.310411 6.7575893,83.169116 7.1969295,83.169116 c 0.2032675,0 2.9745525,-8.618772 4.3957685,-12.907866 z"
         id="path326950"
         sodipodi:nodetypes="csccccccccccccscsccscsccscsssscssssssssszzssccsscccccccssscssssss" /></g></g></svg>

<svg xmlns="http://www.w3.org/2000/svg" xml:space="preserve" width="100" height="60"><path d="m8.022 82.833 10.187-31.811 66.638 4.313L74.812 86.9Z" style="fill:#b1b1b1;fill-opacity:1;stroke:#060606;stroke-width:.043021;stroke-linecap:square;stroke-linejoin:round;stroke-miterlimit:4.7" transform="translate(0 -45.222)"/><path d="M8.693 95.912C2.54 83.53 4.825 82.506 10.078 66.834l5.494-16.39 72.67 4.422S93.458 62.84 95 67.79c-.274 7.186-.992 21.388-.992 21.388L80.836 100Zm69.866 3.038-2.788-6.935c-43.423-2.597-68.449-4.357-68.449-4.357l2.727 7.187zm14.76-10.105s1.063-20.237.774-21.101c-1.539-4.604-6.368-12.17-6.368-12.17s-8.331 26.65-8.665 27.897c-.34 1.276-1.882 9.346 2.068 15.35 4.149-3.223 8.167-6.603 12.192-9.976M82.966 84.29c.679-4.624 1.6-10.18 5.176-13.511l.73 1.903c1.035 2.702 1.106 4.695 1.07 5.929-.026.865-2.534 9.524-3.351 10.895-3.14-.944-3.543-2.017-3.625-5.216m5.168-3.163c-.274.17-.516-.241-.537-.912-.053-1.626-2.669 5.996-2.424 6.695.276.785 2.087-5.87 2.32-5.17.233.697-2.207 6.971-1.525 6.227.602-.656 2.827-7.248 2.166-6.84m.34-5.92c.308-1.02-.92-1.765-1.07-.277-.096.963.773 1.255 1.07.277M8.022 91.196c-.775-1.938-1.496-3.439-1.6-3.334s.44 1.78 1.21 3.723c.772 1.943 1.492 3.443 1.602 3.334.11-.11-.436-1.785-1.212-3.723m66.372-2.602c-.071-.304-64.946-4.34-65.753-4.157-.806.183-.575 1.322-.313 1.473.263.15 65.405 4.179 65.657 4.151.226-.024.645-.463.41-1.467m12.153-32.142c.294-.919-.285-.726-.492-.718-10.226 30.22-10.053 31.234-10.053 31.417 0 .944.785.515.987-.116.819-2.56 6.39-20.787 9.558-30.583m-1.839-.61-66.286-4.076-9.978 30.956 66.282 4.012ZM11.528 66.835c2.826-8.578 4.987-15.591 4.803-15.584-.184.008-2.44 6.892-5.302 15.2C5.2 83.365 6.335 82.645 6.335 82.645s-1.728 5.198 5.193-15.81m.065 3.427c3.465-10.459 6.36-19.298 5.804-18.692-.683.741-10.64 31.6-10.2 31.6.203 0 2.974-8.619 4.396-12.908" style="fill:#000;stroke-width:1.99824" transform="translate(0 -45.222)"/></svg>
